src/Pure/16/symbolic/devices/audio-input-microphone-symbolic.svg

<svg width="16" height="16" version="1.1" xmlns="http://www.w3.org/2000/svg">
 <path d="m7.5 0c-1.939 0-3.5 1.561-3.5 3.5v5c0 1.939 1.561 3.5 3.5 3.5s3.5-1.561 3.5-3.5v-5c0-1.939-1.561-3.5-3.5-3.5zm0 1c1.385 0 2.5 1.115 2.5 2.5v5c0 1.385-1.115 2.5-2.5 2.5s-2.5-1.115-2.5-2.5v-5c0-1.385 1.115-2.5 2.5-2.5zm-5 6a0.5 0.5 0 0 0-0.5 0.5v1c0 2.8784 2.1891 5.2255 5 5.4766v1.0234h-1.5c-0.277 0-0.5 0.223-0.5 0.5s0.223 0.5 0.5 0.5h4c0.277 0 0.5-0.223 0.5-0.5s-0.223-0.5-0.5-0.5h-1.5v-1.0234c2.8109-0.25111 5-2.5982 5-5.4766v-1-0.0078125a0.5 0.5 0 0 0-0.5-0.49219 0.5 0.5 0 0 0-0.5 0.49219 0.5 0.5 0 0 0 0 0.0078125v1c0 2.493-2.007 4.5-4.5 4.5s-4.5-2.007-4.5-4.5v-1.0078a0.5 0.5 0 0 0-0.5-0.49219z" fill="#363636" stroke-linecap="round" stroke-linejoin="round" stroke-width="2" style="paint-order:stroke fill markers"/>
</svg>

<?xml version="1.0" encoding="UTF-8" standalone="no"?>
<svg
   width="16"
   height="16"
   version="1.1"
   id="svg1"
   sodipodi:docname="audio-input-microphone-symbolic.svg"
   inkscape:version="1.4.2 (ebf0e940d0, 2025-05-08)"
   xmlns:inkscape="http://www.inkscape.org/namespaces/inkscape"
   xmlns:sodipodi="http://sodipodi.sourceforge.net/DTD/sodipodi-0.dtd"
   xmlns="http://www.w3.org/2000/svg"
   xmlns:svg="http://www.w3.org/2000/svg">
  <defs
   id="defs1">
   <style
    id="current-color-scheme"
    type="text/css">
    .ColorScheme-Text { color:#363636; }
   </style>
  </defs>
  <path
     d="M 7.5,0 C 5.561,0 4,1.561 4,3.5 v 5 C 4,10.439 5.561,12 7.5,12 9.439,12 11,10.439 11,8.5 v -5 C 11,1.561 9.439,0 7.5,0 Z m 0,1 C 8.885,1 10,2.115 10,3.5 v 5 C 10,9.885 8.885,11 7.5,11 6.115,11 5,9.885 5,8.5 v -5 C 5,2.115 6.115,1 7.5,1 Z m -5,6 A 0.5,0.5 0 0 0 2,7.5 v 1 c 0,2.8784 2.1891,5.2255 5,5.4766 V 15 H 5.5 C 5.223,15 5,15.223 5,15.5 5,15.777 5.223,16 5.5,16 h 4 C 9.777,16 10,15.777 10,15.5 10,15.223 9.777,15 9.5,15 H 8 V 13.9766 C 10.8109,13.72549 13,11.3784 13,8.5 V 7.5 7.49219 A 0.5,0.5 0 0 0 12.5,6.9999975 0.5,0.5 0 0 0 12,7.4921875 0.5,0.5 0 0 0 12,7.5 v 1 C 12,10.993 9.993,13 7.5,13 5.007,13 3,10.993 3,8.5 V 7.4922 A 0.5,0.5 0 0 0 2.5,7.00001 Z"
     style="fill:currentColor"
     class="ColorScheme-Text"
     id="path1" />
</svg>
